X: 99
T: Petronella
M: C|
L: 1/8
B: NEFR #99
Z: Mary Lou Knack?
N: Pickup notes moved to the start of the phrases.
R: reel
K: D
dA \
| "D"F2 AF "A"E2 AF | "D"D2 D2 D2 FA | d2 cd "E"e2 d2 | "A"cd Bc A2 dA |
| "D"F2 AF "A"E2 AF | "D"D2 D2 D2 FA | d2 cd "A"e2 c2 | "D"d4 d2 :|
|: dA \
| "D"F2 fd "D7"A2 af | "G"ga gf "Em"ed cB | "A"A2 ec A2 ge | "D"fa fd Ad AF |
| "D"D2 fd "D7"A2 af | "G"ga gf "Em"ed cB | "A"A2 ec Ag ec | "D"d2 f2 d2 :|
